X: 27384
T: Mo Mhàthair
R: waltz
M: 3/4
K: Gmajor
d2^c2=c2|B2G4|B4(3d^cd|b4g2|a4b2|g4a2|g4e2|e2d4|
d2e2f2|g4G2|G4G2|e6|d4B2|A6|A4B2|A6|
d2^c2=c2|B2G4|B4(3d^cd|b4g2|a4b2|g4a2|g4e2|e2d4|
d2e2f2|g4G2|e4g2|d2B4|A4B2|G6|G6|G6|
g4a2|b4d2|b4a2|g4G2|B2d4|e4g2|g4e2|e2d4|
d2g2a2|b4a2|g4e2|d2B4|A4G2|A6|A4B2|A6|
d2^c2=c2|B2G4|B4(3d^cd|b4g2|a4b2|g4a2|g4e2|e2d4|
d2e2f2|g4G2|e4g2|d2B4|A4B2|G6|G6|G6|

